img/users/wave.svg

<svg xmlns="http://www.w3.org/2000/svg" width="500" height="200" viewBox="0 0 630 144"><g fill="none" fill-rule="evenodd"><path fill="#203640" d="m531.262 25.378-32.506 85.34c-3.112 8.308-7.172 9.484-13.174 9.484-5.988 0-10.06-1.176-13.158-9.484l-32.306-85.34h18.568l27.106 71.984 26.866-71.984h18.604M390.952 102.68c-16.598 0-30.036-13.904-30.036-31.048 0-17.14 13.438-31.038 30.036-31.038 16.584 0 30.034 13.898 30.034 31.038 0 17.144-13.45 31.048-30.034 31.048Zm47.57-30.666c0-.05-.024-.096-.024-.16v-.074c-.126-27.078-21.374-48.984-47.606-48.984-26.29 0-47.606 22.044-47.606 49.218 0 27.166 21.316 49.192 47.606 49.192 11.64 0 22.296-4.32 30.56-11.48v11.394h17.046V72.156c0-.048.024-.106.024-.142ZM581.724 39.69c10.44 0 15.272 3.102 21.076 8.914l-51.088 28.478c-.234-1.7-.402-3.442-.402-5.25 0-18.974 12.798-32.142 30.414-32.142Zm30.318 38.77c-3.802 15.138-11.646 25.48-30.318 25.48-10.482 0-19.226-4.682-24.604-12.432l69.482-38.65c-8.704-17.996-23.222-29.41-44.878-29.41-25.754 0-48.216 19.738-48.216 48.384 0 28.628 22.462 48.37 48.216 48.37 26.17 0 45.604-17.878 48.174-41.742h-17.856ZM324.644 25.406l-26.888 71.98-27.1-71.98h-18.574l.02.054h-.02l-26.89 71.976-27.086-71.976h-18.578l32.314 85.328c3.104 8.32 7.166 9.476 13.172 9.476 5.99 0 10.046-1.156 13.144-9.476l23.212-60.89 23.022 60.832c3.104 8.328 7.158 9.496 13.162 9.496 5.998 0 10.066-1.168 13.168-9.496l32.508-85.324h-18.586"/><path fill="#008A94" d="M110.99 125.09a45.827 45.827 0 0 1-18.668-3.966c-16.584-7.356-28.154-24.214-28.154-43.832 0-10.542 3.342-20.304 9.022-28.218a45.984 45.984 0 0 0-18.676-3.942c-20.688 0-41.462 15.528-45.464 35.734-4.312 21.778 7.004 40.328 25.454 52.012 4.784 3.036 10.192 5.782 15.588 7.606 2.856.96 5.8 1.734 8.814 2.312.69.126 1.378.266 2.074.368.052.012.104.016.156.026a72.33 72.33 0 0 0 10.64.81c13.354-.06 24.756-3.152 35.862-9.438.452-.258 1.704-.988 1.882-1.094a72.569 72.569 0 0 0 11.862-9.082c-3.312.586-8.77.704-10.392.704"/><path fill="#37DCD6" d="M86.628 1.488c-.08-.012-.158-.032-.234-.048a77.645 77.645 0 0 0-3-.534c-.41-.066-.828-.122-1.242-.18-.78-.11-1.562-.212-2.348-.296a58.486 58.486 0 0 0-2.138-.184c-.562-.048-1.118-.098-1.678-.13A75.266 75.266 0 0 0 72.002 0C32.236.004 0 32.238 0 72.004c0 3 .206 5.952.562 8.854.56-2.242 1.06-4.108 1.588-5.796C8.67 52.64 29.354 36.246 53.88 36.246c9.652 0 18.698 2.55 26.532 6.992 9.468 4.952 16.316 12.582 20.742 21.03a53.636 53.636 0 0 1 6.606 25.856c0 9.008-2.482 17.692-6.388 25.152 3.048.75 7.164 1.172 11.546 1.172 3.622 0 10.276-.28 18.168-3.25.066-.098.306-.484.374-.586 2.38-3.57 4.428-7.19 6.144-10.932.162-.36.33-.72.486-1.082.174-.392.336-.794.504-1.192.316-.766.624-1.54.916-2.32.06-.16.12-.318.178-.478a72.09 72.09 0 0 0 1.948-6.238c.122-.476.238-.956.35-1.438.1-.414.192-.824.286-1.234.938-4.332 1.506-8.902 1.686-13.808.01-.316.022-.632.024-.95.01-.366.016-.738.02-1.112-.082-34.676-24.674-63.59-57.374-70.34"/></g></svg>

<svg width="500px" height="200px" viewBox="0 0 630 144" version="1.1" xmlns="http://www.w3.org/2000/svg" xmlns:xlink="http://www.w3.org/1999/xlink"> <g id="Elements" stroke="none" stroke-width="1" fill="none" fill-rule="evenodd"> <g id="Logos" transform="translate(-185.000000, -806.000000)"> <g id="light" transform="translate(185.000000, 806.000000)"> <path d="M531.262,25.378 L498.756,110.718 C495.644,119.026 491.584,120.202 485.582,120.202 C479.594,120.202 475.522,119.026 472.424,110.718 L440.118,25.378 L458.686,25.378 L485.792,97.362 L512.658,25.378 L531.262,25.378" id="Fill-6" fill="#203640"></path> <path d="M390.952,102.68 C374.354,102.68 360.916,88.776 360.916,71.632 C360.916,54.492 374.354,40.594 390.952,40.594 C407.536,40.594 420.986,54.492 420.986,71.632 C420.986,88.776 407.536,102.68 390.952,102.68 L390.952,102.68 Z M438.522,72.014 C438.522,71.964 438.498,71.918 438.498,71.854 L438.498,71.78 C438.372,44.702 417.124,22.796 390.892,22.796 C364.602,22.796 343.286,44.84 343.286,72.014 C343.286,99.18 364.602,121.206 390.892,121.206 C402.532,121.206 413.188,116.886 421.452,109.726 L421.452,121.12 L438.498,121.12 L438.498,72.156 C438.498,72.108 438.522,72.05 438.522,72.014 L438.522,72.014 Z" id="Fill-7" fill="#203640"></path> <path d="M581.724,39.69 C592.164,39.69 596.996,42.792 602.8,48.604 L551.712,77.082 C551.478,75.382 551.31,73.64 551.31,71.832 C551.31,52.858 564.108,39.69 581.724,39.69 L581.724,39.69 Z M612.042,78.46 C608.24,93.598 600.396,103.94 581.724,103.94 C571.242,103.94 562.498,99.258 557.12,91.508 L626.602,52.858 C617.898,34.862 603.38,23.448 581.724,23.448 C555.97,23.448 533.508,43.186 533.508,71.832 C533.508,100.46 555.97,120.202 581.724,120.202 C607.894,120.202 627.328,102.324 629.898,78.46 L612.042,78.46 L612.042,78.46 Z" id="Fill-8" fill="#203640"></path> <path d="M324.644,25.406 L297.756,97.386 L270.656,25.406 L252.082,25.406 L252.102,25.46 L252.082,25.46 L225.192,97.436 L198.106,25.46 L179.528,25.46 L211.842,110.788 C214.946,119.108 219.008,120.264 225.014,120.264 C231.004,120.264 235.06,119.108 238.158,110.788 L261.37,49.898 L284.392,110.73 C287.496,119.058 291.55,120.226 297.554,120.226 C303.552,120.226 307.62,119.058 310.722,110.73 L343.23,25.406 L324.644,25.406" id="Fill-9" fill="#203640"></path> <path d="M110.99,125.09 C104.37,125.09 98.048,123.672 92.322,121.124 C75.738,113.768 64.168,96.91 64.168,77.292 C64.168,66.75 67.51,56.988 73.19,49.074 C67.472,46.542 61.162,45.132 54.514,45.132 C33.826,45.132 13.052,60.66 9.05,80.866 C4.738,102.644 16.054,121.194 34.504,132.878 C39.288,135.914 44.696,138.66 50.092,140.484 C52.948,141.444 55.892,142.218 58.906,142.796 C59.596,142.922 60.284,143.062 60.98,143.164 C61.032,143.176 61.084,143.18 61.136,143.19 C64.608,143.714 68.16,143.992 71.776,144 C85.13,143.94 96.532,140.848 107.638,134.562 C108.09,134.304 109.342,133.574 109.52,133.468 C113.792,130.854 117.756,127.8 121.382,124.386 C118.07,124.972 112.612,125.09 110.99,125.09" id="Fill-12" fill="#008A94"></path> <path d="M86.628,1.488 C86.548,1.476 86.47,1.456 86.394,1.44 C85.402,1.242 84.4,1.066 83.394,0.906 C82.984,0.84 82.566,0.784 82.152,0.726 C81.372,0.616 80.59,0.514 79.804,0.43 C79.096,0.354 78.378,0.296 77.666,0.246 C77.104,0.198 76.548,0.148 75.988,0.116 C74.666,0.046 73.34,0 72.002,0 C32.236,0.004 0,32.238 0,72.004 C0,75.004 0.206,77.956 0.562,80.858 C1.122,78.616 1.622,76.75 2.15,75.062 C8.67,52.64 29.354,36.246 53.88,36.246 C63.532,36.246 72.578,38.796 80.412,43.238 C89.88,48.19 96.728,55.82 101.154,64.268 C105.362,71.944 107.76,80.758 107.76,90.124 C107.76,99.132 105.278,107.816 101.372,115.276 C104.42,116.026 108.536,116.448 112.918,116.448 C116.54,116.448 123.194,116.168 131.086,113.198 C131.152,113.1 131.392,112.714 131.46,112.612 C133.84,109.042 135.888,105.422 137.604,101.68 C137.766,101.32 137.934,100.96 138.09,100.598 C138.264,100.206 138.426,99.804 138.594,99.406 C138.91,98.64 139.218,97.866 139.51,97.086 C139.57,96.926 139.63,96.768 139.688,96.608 C140.428,94.57 141.078,92.488 141.636,90.37 C141.758,89.894 141.874,89.414 141.986,88.932 C142.086,88.518 142.178,88.108 142.272,87.698 C143.21,83.366 143.778,78.796 143.958,73.89 C143.968,73.574 143.98,73.258 143.982,72.94 C143.992,72.574 143.998,72.202 144.002,71.828 C143.92,37.152 119.328,8.238 86.628,1.488" id="Fill-10" fill="#37DCD6"></path> </g> </g> </g> </svg>
